assets/Boar/Flat/boar_flat.svg

<svg xmlns="http://www.w3.org/2000/svg" width="32" height="32" fill="none"><path fill="#6D4534" d="m25.4 7.11 3.82 1.57c.47.19.78.65.78 1.16v18.7c0 .69-.7 1.14-1.32.86l-7.83-3.56a9.438 9.438 0 0 0-3.88-.84h-5.36C9.35 25 7.25 23.87 6 22H2.94a.941.941 0 0 1-.33-.06l.001-7.881A.94.94 0 0 1 2.94 14c2.53 0 4.9-1.27 6.3-3.39l1.14-1.71A8.694 8.694 0 0 1 17.64 5c.21 0 .4-.1.52-.27A6.165 6.165 0 0 1 23.28 2h1.47c1.09 0 1.84 1.09 1.46 2.1 0 0-.63 1.69-.98 2.61-.06.16.01.34.17.4Z"/><path fill="#FF8687" d="M24.98 4.55 24.44 6c-.9 2.4-3.21 4-5.78 4h-.12c-.28 0-.48-.28-.38-.55l.9-2.4A4.697 4.697 0 0 1 23.46 4h1.14c.29 0 .48.28.38.55ZM2.64 14.05A4.01 4.01 0 0 1 6 18a4.01 4.01 0 0 1-3.36 3.95.95.95 0 0 1-.64-.89v-6.12c0-.41.27-.76.64-.89Z"/><path fill="#D3D3D3" d="M12.17 22c.63 0 .87-.83.33-1.16a8.67 8.67 0 0 1-1.67-1.31 8.103 8.103 0 0 1-1.51-2.16c-.27-.57-1.12-.43-1.19.19-.16 1.33.02 2.69.53 3.94.12.3.42.5.75.5h2.76Z"/><path fill="#1C1C1C" d="M12 16c0 .55.45 1 1 1s1-.45 1-1v-2c0-.55-.45-1-1-1s-1 .45-1 1v2ZM3 19.5c0 .28.22.5.5.5s.5-.22.5-.5v-3c0-.28-.22-.5-.5-.5s-.5.22-.5.5v3Z"/><path fill="#A56953" d="m24.76 13.11-1.34 1.34c-.32.32-.85.32-1.17 0a.833.833 0 0 1 0-1.17l1.34-1.34c.32-.32.85-.32 1.17 0 .32.32.32.85 0 1.17ZM26 18.1h-1.9c-.46 0-.83-.37-.83-.83 0-.46.37-.83.83-.83H26c.46 0 .83.37.83.83 0 .46-.37.83-.83.83ZM23.58 22.61l-1.34-1.34a.833.833 0 0 1 0-1.17c.32-.32.85-.32 1.17 0l1.34 1.34c.32.32.32.85 0 1.17-.32.32-.85.32-1.17 0Z"/></svg>

<svg width="32" height="32" viewBox="0 0 32 32" fill="none" xmlns="http://www.w3.org/2000/svg">
<path d="M25.4 7.11L29.22 8.68C29.69 8.87 30 9.33 30 9.84V28.54C30 29.23 29.3 29.68 28.68 29.4L20.85 25.84C19.63 25.29 18.31 25 16.97 25H11.61C9.34998 25 7.24998 23.87 5.99998 22H2.93998C2.82355 22 2.71213 21.9789 2.60931 21.9404L2.61149 14.0588C2.7137 14.0208 2.82437 14 2.93998 14C5.46998 14 7.83998 12.73 9.23998 10.61L10.38 8.9C11.99 6.46 14.72 5 17.64 5C17.85 5 18.04 4.9 18.16 4.73C19.29 3.05 21.19 2 23.28 2H24.75C25.84 2 26.59 3.09 26.21 4.1C26.21 4.1 25.58 5.79 25.23 6.71C25.17 6.87 25.24 7.05 25.4 7.11Z" fill="#6D4534"/>
<path d="M24.98 4.55L24.44 6C23.54 8.4 21.23 10 18.66 10H18.54C18.26 10 18.06 9.72 18.16 9.45L19.06 7.05C19.74 5.22 21.5 4 23.46 4H24.6C24.89 4 25.08 4.28 24.98 4.55Z" fill="#FF8687"/>
<path d="M2.64 14.05C4.54 14.36 6 16.01 6 18C6 19.99 4.54 21.64 2.64 21.95C2.27 21.82 2 21.47 2 21.06V14.94C2 14.53 2.27 14.18 2.64 14.05Z" fill="#FF8687"/>
<path d="M12.17 22C12.8 22 13.04 21.17 12.5 20.84C11.7 20.35 11.14 19.85 10.83 19.53C10.2 18.88 9.69003 18.15 9.32003 17.37C9.05003 16.8 8.20003 16.94 8.13003 17.56C7.97003 18.89 8.15003 20.25 8.66003 21.5C8.78003 21.8 9.08003 22 9.41003 22H12.17Z" fill="#D3D3D3"/>
<path d="M12 16C12 16.55 12.45 17 13 17C13.55 17 14 16.55 14 16V14C14 13.45 13.55 13 13 13C12.45 13 12 13.45 12 14V16Z" fill="#1C1C1C"/>
<path d="M3 19.5C3 19.78 3.22 20 3.5 20C3.78 20 4 19.78 4 19.5V16.5C4 16.22 3.78 16 3.5 16C3.22 16 3 16.22 3 16.5V19.5Z" fill="#1C1C1C"/>
<path d="M24.76 13.11L23.42 14.45C23.1 14.77 22.57 14.77 22.25 14.45C21.93 14.13 21.93 13.6 22.25 13.28L23.59 11.94C23.91 11.62 24.44 11.62 24.76 11.94C25.08 12.26 25.08 12.79 24.76 13.11Z" fill="#A56953"/>
<path d="M26 18.1H24.1C23.64 18.1 23.27 17.73 23.27 17.27C23.27 16.81 23.64 16.44 24.1 16.44H26C26.46 16.44 26.83 16.81 26.83 17.27C26.83 17.73 26.46 18.1 26 18.1Z" fill="#A56953"/>
<path d="M23.58 22.61L22.24 21.27C21.92 20.94 21.92 20.42 22.24 20.1C22.56 19.78 23.09 19.78 23.41 20.1L24.75 21.44C25.07 21.76 25.07 22.29 24.75 22.61C24.43 22.93 23.9 22.93 23.58 22.61Z" fill="#A56953"/>
</svg>
